X: 7
T:Shepherds' Hey, Fieldtown
M:4/4
L:1/8
A:Fieldtown
P:A(AB2)4
K:G
P:A
|:G|BcdB c2c2|B2d2 A4|BcdB c2Bc|d2D2 G3:|
P:B
|:G|B2B2 c4  |B2B2 A4|B2AB c2Bc|d2D2 G3:|
